Icons/new_component.svg

<?xml version="1.0" encoding="UTF-8" standalone="no"?>
<svg
   viewBox="0 0 50 50"
   width="50px"
   height="50px"
   version="1.1"
   id="svg1"
   xml:space="preserve"
   xmlns="http://www.w3.org/2000/svg"
   xmlns:svg="http://www.w3.org/2000/svg"><defs
     id="defs1" /><path
     stroke="currentColor"
     stroke-linecap="round"
     stroke-linejoin="round"
     stroke-width="5.05019"
     d="M 29.647015,12.927309 H 6.2754881 m 0,-4.6743039 V 38.635988 c -7e-7,1.290774 1.0463787,2.337153 2.3371532,2.337153 H 41.332779 c 1.290774,0 2.337154,-1.046379 2.337153,-2.337153 V 15.264462 c 0,-1.290773 -1.046379,-2.337153 -2.337153,-2.337153 H 29.572228 c -0.693511,-2.6e-4 -1.351088,-0.3085 -1.794934,-0.841375 L 23.336704,6.7572272 C 22.892858,6.2243516 22.23528,5.9161118 21.54177,5.9158519 H 8.6126413 c -1.2907743,-3e-7 -2.3371535,1.0463789 -2.3371532,2.3371532 z"
     id="path1"
     style="fill:none;fill-opacity:1;stroke:#353e48;stroke-width:1.85114;stroke-dasharray:none;stroke-opacity:1" /><path
     stroke="currentColor"
     stroke-linecap="round"
     stroke-linejoin="round"
     stroke-width="3.52968"
     d="M 25.025589,19.219675 V 34.196149 M 17.537351,26.707913 H 32.513825"
     id="path1-0"
     style="fill:none;stroke:#1872f0;stroke-opacity:1" /></svg>

<svg width="50px" height="50px" version="1.1" viewBox="0 0 50 50" xml:space="preserve" xmlns="http://www.w3.org/2000/svg"><path d="m29.647 12.927h-23.372m0-4.6743v30.383c-7e-7 1.2908 1.0464 2.3372 2.3372 2.3372h32.72c1.2908 0 2.3372-1.0464 2.3372-2.3372v-23.372c0-1.2908-1.0464-2.3372-2.3372-2.3372h-11.761c-0.69351-2.6e-4 -1.3511-0.3085-1.7949-0.84138l-4.4406-5.3287c-0.44385-0.53288-1.1014-0.84112-1.7949-0.84138h-12.929c-1.2908-3e-7 -2.3372 1.0464-2.3372 2.3372z" fill="none" stroke="currentColor" stroke-linecap="round" stroke-linejoin="round" stroke-width="1.8511"/><path d="m25.026 19.22v14.976m-7.4882-7.4882h14.976" fill="none" stroke="#1872f0" stroke-linecap="round" stroke-linejoin="round" stroke-width="3.5297"/></svg>
